X:1
T: Hugh Dunlop
C:
R:Strathspey
Q: 128
K:D
M:4/4
L:1/16
|:F2|A,3D F3A d3B A3F|F3A D3A GE3 E3F|A,3D F3A d3B A3F|A3d F3d FD3 D2F2|
A,3D F3A d3B A3F|F3A D3A GE3 E3F|((3F2G2A2) ((3D2E2F2) ((3G2A2B2) ((3A2G2F2) |((3G2F2G2) ((3E2A2G2) FD3 D2B2|
Ad3 d2ef g3a g3e|a3e f3d e3d c3A|Ad3 d2ef g3a g3e|ea3 e3f d4 df3|
Ad3 d2ef g3a g3e|a3e f3d e3d c3A|((3f2d2f2) ((3e2c2e2) ((3d2c2B2) ((3A2G2F2) |((3G2F2G2) ((3E2A2G2) FD3 D2:|
